src/apps/symbolic/preferences-desktop-appearance-symbolic.svg

<svg width="16px" height="16px" version="1.1" viewBox="0 0 16 16" xmlns="http://www.w3.org/2000/svg">
 <path d="m2.002 1a0.999 0.999 0 0 0-1.002 1v10c0 0.554 0.44695 1 1.002 1h11.996a0.999 0.999 0 0 0 1.002-1v-9.8789l-1 1.002v8.877h-12v-10h8.877l1.002-1h-9.877z" fill="#363636"/>
 <rect x="4" y="14" width="8" height="1" rx="0" ry="0" fill="#363636" paint-order="markers stroke fill"/>
 <path d="m14.293 0-3.8418 3.8418c0.26432 0.20518 0.50185 0.44271 0.70703 0.70703l4.5488-4.5488h-1.4141zm-6.2813 4c-1.6563 0-3 1.3398-3 3v3h3c1.6602 0.0078 3-1.3438 3-3 0-1.6602-1.3398-3-3-3zm-0.011719 1a2 2 0 0 1 2 2 2 2 0 0 1-2 2h-2v-2a2 2 0 0 1 2-2z" color="#000000" fill="#363636" stroke-width="2" style="-inkscape-stroke:none"/>
</svg>

<svg xmlns="http://www.w3.org/2000/svg" width="16" height="16">
    <path fill="#050505" fill-opacity=".7" d="M2.002 1A.999.999 0 0 0 1 2v10c0 .554.447 1 1.002 1h11.996A.999.999 0 0 0 15 12V2.121l-1 1.002V12H2V2h8.877l1.002-1H2.002z"/>
    <rect width="8" height="1" x="4" y="14" fill="#050505" fill-opacity=".7" paint-order="markers stroke fill" rx="0" ry="0"/>
    <path fill="#050505" fill-opacity=".7" d="m14.293 0-3.842 3.842a4 4 0 0 1 .707.707L15.707 0h-1.414zM8.012 4c-1.657 0-3 1.34-3 3v3h3c1.66.008 3-1.344 3-3 0-1.66-1.34-3-3-3zM8 5a2 2 0 0 1 2 2 2 2 0 0 1-2 2H6V7a2 2 0 0 1 2-2z" color="#000" style="-inkscape-stroke:none"/>
</svg>
